UI/Devices-Sensors/SVG/barcode-reader_solid_16px.svg

<svg xmlns="http://www.w3.org/2000/svg" width="16" height="16" viewBox="0 0 16 16"><rect width="16" height="16" style="fill:none"/><path d="M5,4H4v8H5ZM6,4H8v8H6ZM9,4h1v8H9Zm3,0H11v8h1ZM3,6H1V1H6V3H3ZM15,6H13V3H10V1h5Zm0,9H10V13h3V10h2ZM6,15H1V10H3v3H6Z" style="fill-rule:evenodd"/></svg>

<svg width="16" height="16" viewBox="0 0 16 16" fill="none" xmlns="http://www.w3.org/2000/svg">
<path fill-rule="evenodd" clip-rule="evenodd" d="M5 4H4V12H5V4ZM6 4H8V12H6V4ZM9 4H10V12H9V4ZM12 4H11V12H12V4ZM3 6H1V1H6V3H3V6ZM15 6H13V3H10V1H15V6ZM15 15H10V13H13V10H15V15ZM6 15H1V10H3V13H6V15Z" fill="#0F1621"/>
</svg>
